static/fa/svgs/solid/pencil.svg

<svg xmlns="http://www.w3.org/2000/svg" viewBox="0 0 512 512"><!--! Font Awesome Free 6.1.1 by @fontawesome - https://fontawesome.com License - https://fontawesome.com/license/free (Icons: CC BY 4.0, Fonts: SIL OFL 1.1, Code: MIT License) Copyright 2022 Fonticons, Inc.--><path d="M421.7 220.3 188.5 453.4l-33.9-33.9 3.5-3.5H112c-8.8 0-16-7.2-16-16v-46.1l-3.49 3.5c-4.73 4.8-8.2 10.6-10.09 17l-22.98 78.2 78.16-23c5.5-1.9 12.2-5.4 17-10.1l33.9 33.9c-10.4 10.4-23.3 18.1-37.4 22.2L30.77 511c-8.42 2.5-17.53.2-23.74-6.9-6.21-5.3-8.532-14.4-6.054-22.9L36.37 360.9c4.16-14.1 11.79-27 22.2-37.4L291.7 90.34l130 129.96zm71-161.55c25 24.99 25 65.55 0 90.55l-48.4 48.4-130-129.98 48.4-48.4c25-24.998 65.6-24.998 90.6 0l39.4 39.43z"/></svg>

<svg xmlns="http://www.w3.org/2000/svg" viewBox="0 0 512 512"><!--! Font Awesome Free 6.1.1 by @fontawesome - https://fontawesome.com License - https://fontawesome.com/license/free (Icons: CC BY 4.0, Fonts: SIL OFL 1.1, Code: MIT License) Copyright 2022 Fonticons, Inc. --><path d="M421.7 220.3L188.5 453.4L154.6 419.5L158.1 416H112C103.2 416 96 408.8 96 400V353.9L92.51 357.4C87.78 362.2 84.31 368 82.42 374.4L59.44 452.6L137.6 429.6C143.1 427.7 149.8 424.2 154.6 419.5L188.5 453.4C178.1 463.8 165.2 471.5 151.1 475.6L30.77 511C22.35 513.5 13.24 511.2 7.03 504.1C.8198 498.8-1.502 489.7 .976 481.2L36.37 360.9C40.53 346.8 48.16 333.9 58.57 323.5L291.7 90.34L421.7 220.3zM492.7 58.75C517.7 83.74 517.7 124.3 492.7 149.3L444.3 197.7L314.3 67.72L362.7 19.32C387.7-5.678 428.3-5.678 453.3 19.32L492.7 58.75z"/></svg>
